X: 1144
T: Ellen O'Grady
B:O'Neill's Music of Ireland
N:O'Neill's - 1144
Z:Transcribed by Stephen Foy (shf@access.digex.net)
Z:abc 1.6
M:9/8
R:slipjig
K:A
eaa ef=g fed | eaa ef=g f2 d | eaa ef=g fed | =gfg ecA Bcd :|
e2 e Bcd cBA | e2 e Bcd c2 A | e2 e Bcd cBA | agf ecA Bcd |
e2 d Bcd cBA | e2 e Bcd c2 A | efg agf edc | fef B2 c d2 B ||


